X: 400
T: The mariner's frock
C:anon.
O:Ireland
B:Francis O'Neill: "The Dance Music of Ireland" (1907) no. 400
R:Single jig
Z:Transcribed by Frank Nordberg - http://www.musicaviva.com
F:http://www.musicaviva.com/abc/tunes/ireland/oneill-1001/oneill-1001-040
0.abc
M:6/8
L:1/8
K:Am
A|AGE G2A|G2E E2D|EAA c2d|e2d de^f|g3 g^fe|dcB c2d|edc BAG|({c}B2)A A2:|
||z|a2a- a^ga|a2e e2^f|g2a g2e|dBG GBd|g2g e2e|dcB c2d|edc BAG|({c}B2)A A
2:|
W:
W:
W:  From Musica Viva - http://www.musicaviva.com
W:  the Internet center for free sheet music downloads.


